2-ui/1-document/09-size-and-scroll/metric-scroll-top.svg

<svg xmlns="http://www.w3.org/2000/svg" width="489" height="542" viewBox="0 0 489 542"><defs><style>@import url(https://fonts.googleapis.com/css?family=Open+Sans:bold,italic,bolditalic%7CPT+Mono);@font-face{font-family:&apos;PT Mono&apos;;font-weight:700;font-style:normal;src:local(&apos;PT MonoBold&apos;),url(/font/PTMonoBold.woff2) format(&apos;woff2&apos;),url(/font/PTMonoBold.woff) format(&apos;woff&apos;),url(/font/PTMonoBold.ttf) format(&apos;truetype&apos;)}</style></defs><defs><linearGradient id="linearGradient-1" x1="50%" x2="50%" y1="0%" y2="100%"><stop offset="0%" stop-color="#FFF"/><stop offset="100%" stop-color="#F1F1F1"/></linearGradient><linearGradient id="linearGradient-2" x1="50%" x2="50%" y1="0%" y2="100%"><stop offset="0%" stop-color="#FFF"/><stop offset="100%" stop-color="#F1F1F1"/></linearGradient></defs><g id="dom" fill="none" fill-rule="evenodd" stroke="none" stroke-width="1"><g id="metric-scroll-top.svg"><path fill="#FFF" d="M0 0h489v542H0z"/><text id="Introduction" fill="#5A4739" font-family="OpenSans-Bold, Open Sans" font-size="16" font-weight="bold"><tspan x="94" y="54">Introduction</tspan>  <tspan x="94" y="82" font-family="OpenSans-Regular, Open Sans" font-size="14" font-weight="normal">This Ecma Standard is based on several </tspan> <tspan x="94" y="101" font-family="OpenSans-Regular, Open Sans" font-size="14" font-weight="normal">originating technologies, the most well </tspan> <tspan x="94" y="120" font-family="OpenSans-Regular, Open Sans" font-size="14" font-weight="normal">known being JavaScript (Netscape) and </tspan> <tspan x="94" y="139" font-family="OpenSans-Regular, Open Sans" font-size="14" font-weight="normal">JScript (Microsoft). The language was </tspan> <tspan x="94" y="158" font-family="OpenSans-Regular, Open Sans" font-size="14" font-weight="normal">invented by Brendan Eich at Netscape and </tspan> <tspan x="94" y="177" font-family="OpenSans-Regular, Open Sans" font-size="14" font-weight="normal">first appeared in that company’s Navigator </tspan> <tspan x="94" y="196" font-family="OpenSans-Regular, Open Sans" font-size="14" font-weight="normal">2.0 browser. It has appeared in all </tspan> <tspan x="94" y="215" font-family="OpenSans-Regular, Open Sans" font-size="14" font-weight="normal">subsequent browsers from Netscape and </tspan> <tspan x="94" y="234" font-family="OpenSans-Regular, Open Sans" font-size="14" font-weight="normal">in all browsers from Microsoft starting with </tspan> <tspan x="94" y="253" font-family="OpenSans-Regular, Open Sans" font-size="14" font-weight="normal">Internet Explorer 3.0.</tspan> <tspan x="94" y="272" font-family="OpenSans-Regular, Open Sans" font-size="14" font-weight="normal">The development of this Standard started </tspan> <tspan x="94" y="291" font-family="OpenSans-Regular, Open Sans" font-size="14" font-weight="normal">in November 1996. The first edition of this </tspan> <tspan x="94" y="310" font-family="OpenSans-Regular, Open Sans" font-size="14" font-weight="normal">Ecma Standard was adopted by the Ecma </tspan> <tspan x="94" y="329" font-family="OpenSans-Regular, Open Sans" font-size="14" font-weight="normal">General Assembly of June 1997.</tspan> <tspan x="94" y="348" font-family="OpenSans-Regular, Open Sans" font-size="14" font-weight="normal">That Ecma Standard was submitted to ISO/</tspan> <tspan x="94" y="367" font-family="OpenSans-Regular, Open Sans" font-size="14" font-weight="normal">IEC JTC 1 for adoption under the fast-track </tspan> <tspan x="94" y="386" font-family="OpenSans-Regular, Open Sans" font-size="14" font-weight="normal">procedure, and approved as international </tspan> <tspan x="94" y="405" font-family="OpenSans-Regular, Open Sans" font-size="14" font-weight="normal">standard ISO/IEC 16262, in April 1998. The </tspan> <tspan x="94" y="424" font-family="OpenSans-Regular, Open Sans" font-size="14" font-weight="normal">Ecma General Assembly of June 1998 </tspan> <tspan x="94" y="443" font-family="OpenSans-Regular, Open Sans" font-size="14" font-weight="normal">approved the second edition of ECMA-262 </tspan> <tspan x="94" y="462" font-family="OpenSans-Regular, Open Sans" font-size="14" font-weight="normal">to keep it fully aligned with ISO/IEC 16262. </tspan> <tspan x="94" y="481" font-family="OpenSans-Regular, Open Sans" font-size="14" font-weight="normal">Changes between the first and the second </tspan> <tspan x="94" y="500" font-family="OpenSans-Regular, Open Sans" font-size="14" font-weight="normal">edition are editorial in nature.</tspan></text><path id="Rectangle-1" fill="#E8C48F" fill-opacity=".88" d="M425 122v290H51V122h374zm-25 25H76v240h324V147z"/><path id="Rectangle-2" stroke="#E8C48F" stroke-opacity=".8" stroke-width="2" d="M75 22h326v500H75z"/><text id="scrollTop" fill="#EE6B47" font-family="PTMono-Regular, PT Mono" font-size="12" font-weight="normal" transform="rotate(-90 16.5 84)"><tspan x="-15.9" y="88">scrollTop</tspan></text><path id="Line-43" stroke="#EE6B47" stroke-dasharray="3,6" stroke-linecap="square" stroke-width="2" d="M9.5 147h66.14"/><path id="Line-42" stroke="#EE6B47" stroke-dasharray="3,6" stroke-linecap="square" stroke-width="2" d="M10.5 21h66.14"/><path id="Line-39" fill="#EE6B47" fill-rule="nonzero" d="M35 20.5l7 14h-6v97.819l6 .001-7 14-7-14 6-.001V34.5h-6l7-14z"/><path id="Rectangle-14" fill="#FFF" fill-opacity=".8" d="M88 33h312v89H88z"/><path id="Rectangle-15" fill="#FFF" fill-opacity=".8" d="M88 411h312v89H88z"/><text id="scrollHeight:723px" font-family="PTMono-Regular, PT Mono" font-size="14" font-weight="normal" transform="rotate(-90 449 270)"><tspan x="373.4" y="274.5" fill="#EE6B47">scrollHeight:</tspan> <tspan x="482.6" y="274.5" fill="#3B86C4">723px</tspan></text><path id="Line-27" stroke="#EE6B47" stroke-dasharray="3,6" stroke-linecap="square" stroke-width="2" d="M393.5 22h78.14"/><path id="Line-28" stroke="#EE6B47" stroke-dasharray="3,6" stroke-linecap="square" stroke-width="2" d="M393.5 522h78.14"/><path id="Line-25" fill="#EE6B47" fill-rule="nonzero" d="M462 24.5l7 14h-6v466h6l-7 14-7-14h6v-466h-6l7-14z"/><g id="Scrollbar" transform="translate(384 147)"><rect id="Rectangle-19" width="15" height="239" x=".5" y=".5" fill="#F3F2F2" stroke="#E9E9E9" rx="3"/><g id="Rectangle-18-+-Triangle-1"><rect id="Rectangle-18" width="15" height="19" x=".5" y=".5" fill="url(#linearGradient-1)" stroke="#CFCFCF" rx="3"/><path id="Triangle-1" fill="#92979F" d="M8 7l3.2 6H4.8z"/></g><g id="Rectangle-18-+-Triangle-2" transform="matrix(1 0 0 -1 0 240)"><rect id="Rectangle-18" width="15" height="19" x=".5" y=".5" fill="url(#linearGradient-1)" stroke="#CFCFCF" rx="3"/><path id="Triangle-1" fill="#92979F" d="M8 7l3.2 6H4.8z"/></g><g id="Rectangle-18-+-Triangle-3-+-Group" transform="translate(0 50)"><g id="Rectangle-18-+-Triangle-3" fill="url(#linearGradient-2)" stroke="#CFCFCF" transform="matrix(1 0 0 -1 0 51)"><rect id="Rectangle-18" width="15" height="50" x=".5" y=".5" rx="3"/></g><g id="Group" fill="#D8D8D8" stroke="#979797" transform="translate(4 20)"><path id="Rectangle-22" d="M.5.5h7v1h-7z"/><path id="Rectangle-23" d="M.5 3.5h7v1h-7z"/><path id="Rectangle-24" d="M.5 6.5h7v1h-7z"/><path id="Rectangle-25" d="M.5 9.5h7v1h-7z"/></g></g></g></g></g></svg>

<?xml version="1.0" encoding="UTF-8"?>
<svg width="489px" height="542px" viewBox="0 0 489 542" version="1.1" xmlns="http://www.w3.org/2000/svg" xmlns:xlink="http://www.w3.org/1999/xlink">
    <!-- Generator: sketchtool 61.2 (101010) - https://sketch.com -->
    <title>metric-scroll-top.svg</title>
    <desc>Created with sketchtool.</desc>
    <defs>
        <linearGradient x1="50%" y1="0%" x2="50%" y2="100%" id="linearGradient-1">
            <stop stop-color="#FFFFFF" offset="0%"></stop>
            <stop stop-color="#F1F1F1" offset="100%"></stop>
        </linearGradient>
        <linearGradient x1="50%" y1="0%" x2="50%" y2="100%" id="linearGradient-2">
            <stop stop-color="#FFFFFF" offset="0%"></stop>
            <stop stop-color="#F1F1F1" offset="100%"></stop>
        </linearGradient>
    </defs>
    <g id="dom" stroke="none" stroke-width="1" fill="none" fill-rule="evenodd">
        <g id="metric-scroll-top.svg">
            <rect fill="#FFFFFF" x="0" y="0" width="489" height="542"></rect>
            <text id="Introduction" font-family="OpenSans-Bold, Open Sans" font-size="16" font-weight="bold" fill="#5A4739">
                <tspan x="94" y="54">Introduction</tspan>
                <tspan x="194.726562" y="54" font-family="Helvetica" font-size="14" font-weight="normal"></tspan>
                <tspan x="94" y="82" font-family="Helvetica" font-size="14" font-weight="normal">This Ecma Standard is based on several </tspan>
                <tspan x="94" y="99" font-family="Helvetica" font-size="14" font-weight="normal">originating technologies, the most well known </tspan>
                <tspan x="94" y="116" font-family="Helvetica" font-size="14" font-weight="normal">being JavaScript (Netscape) and JScript </tspan>
                <tspan x="94" y="133" font-family="Helvetica" font-size="14" font-weight="normal">(Microsoft). The language was invented by </tspan>
                <tspan x="94" y="150" font-family="Helvetica" font-size="14" font-weight="normal">Brendan Eich at Netscape and first appeared </tspan>
                <tspan x="94" y="167" font-family="Helvetica" font-size="14" font-weight="normal">in that company’s Navigator 2.0 browser. It </tspan>
                <tspan x="94" y="184" font-family="Helvetica" font-size="14" font-weight="normal">has appeared in all subsequent browsers </tspan>
                <tspan x="94" y="201" font-family="Helvetica" font-size="14" font-weight="normal">from Netscape and in all browsers from </tspan>
                <tspan x="94" y="218" font-family="Helvetica" font-size="14" font-weight="normal">Microsoft starting with Internet Explorer 3.0.</tspan>
                <tspan x="94" y="235" font-family="Helvetica" font-size="14" font-weight="normal">The development of this Standard started in </tspan>
                <tspan x="94" y="252" font-family="Helvetica" font-size="14" font-weight="normal">November 1996. The first edition of this Ecma </tspan>
                <tspan x="94" y="269" font-family="Helvetica" font-size="14" font-weight="normal">Standard was adopted by the Ecma General </tspan>
                <tspan x="94" y="286" font-family="Helvetica" font-size="14" font-weight="normal">Assembly of June 1997.</tspan>
                <tspan x="94" y="303" font-family="Helvetica" font-size="14" font-weight="normal">That Ecma Standard was submitted to ISO/</tspan>
                <tspan x="94" y="320" font-family="Helvetica" font-size="14" font-weight="normal">IEC JTC 1 for adoption under the fast-track </tspan>
                <tspan x="94" y="337" font-family="Helvetica" font-size="14" font-weight="normal">procedure, and approved as international </tspan>
                <tspan x="94" y="354" font-family="Helvetica" font-size="14" font-weight="normal">standard ISO/IEC 16262, in April 1998. The </tspan>
                <tspan x="94" y="371" font-family="Helvetica" font-size="14" font-weight="normal">Ecma General Assembly of June 1998 </tspan>
                <tspan x="94" y="388" font-family="Helvetica" font-size="14" font-weight="normal">approved the second edition of ECMA-262 to </tspan>
                <tspan x="94" y="405" font-family="Helvetica" font-size="14" font-weight="normal">keep it fully aligned with ISO/IEC 16262. </tspan>
                <tspan x="94" y="422" font-family="Helvetica" font-size="14" font-weight="normal">Changes between the first and the second </tspan>
                <tspan x="94" y="439" font-family="Helvetica" font-size="14" font-weight="normal">edition are editorial in nature.</tspan>
            </text>
            <path d="M425,122 L425,412 L51,412 L51,122 L425,122 Z M400,147 L76,147 L76,387 L400,387 L400,147 Z" id="Rectangle-1" fill-opacity="0.88" fill="#E8C48F"></path>
            <rect id="Rectangle-2" stroke-opacity="0.8" stroke="#E8C48F" stroke-width="2" x="75" y="22" width="326" height="500"></rect>
            <text id="scrollTop" transform="translate(16.500000, 84.000000) rotate(-90.000000) translate(-16.500000, -84.000000) " font-family="PTMono-Regular, PT Mono" font-size="12" font-weight="normal" fill="#EE6B47">
                <tspan x="-15.9" y="88">scrollTop</tspan>
            </text>
            <line x1="9.5" y1="147" x2="75.6399994" y2="147" id="Line-43" stroke="#EE6B47" stroke-width="2" stroke-linecap="square" stroke-dasharray="3,6"></line>
            <line x1="10.5" y1="21" x2="76.6399994" y2="21" id="Line-42" stroke="#EE6B47" stroke-width="2" stroke-linecap="square" stroke-dasharray="3,6"></line>
            <path id="Line-39" d="M35,20.5 L42,34.5 L36,34.5 L36,132.319 L42,132.32 L35,146.32 L28,132.32 L34,132.319 L34,34.5 L28,34.5 L35,20.5 Z" fill="#EE6B47" fill-rule="nonzero"></path>
            <rect id="Rectangle-14" fill-opacity="0.8" fill="#FFFFFF" x="88" y="33" width="312" height="89"></rect>
            <rect id="Rectangle-15" fill-opacity="0.8" fill="#FFFFFF" x="88" y="411" width="312" height="89"></rect>
            <text id="scrollHeight:723px" transform="translate(449.000000, 270.000000) rotate(-90.000000) translate(-449.000000, -270.000000) " font-family="PTMono-Regular, PT Mono" font-size="14" font-weight="normal">
                <tspan x="373.4" y="274.5" fill="#EE6B47">scrollHeight:</tspan>
                <tspan x="482.6" y="274.5" fill="#3B86C4">723px</tspan>
            </text>
            <line x1="393.5" y1="22" x2="471.639999" y2="22" id="Line-27" stroke="#EE6B47" stroke-width="2" stroke-linecap="square" stroke-dasharray="3,6"></line>
            <line x1="393.5" y1="522" x2="471.639999" y2="522" id="Line-28" stroke="#EE6B47" stroke-width="2" stroke-linecap="square" stroke-dasharray="3,6"></line>
            <path id="Line-25" d="M462,24.5 L469,38.5 L463,38.5 L463,504.5 L469,504.5 L462,518.5 L455,504.5 L461,504.5 L461,38.5 L455,38.5 L462,24.5 Z" fill="#EE6B47" fill-rule="nonzero"></path>
            <g id="Scrollbar" transform="translate(384.000000, 147.000000)">
                <rect id="Rectangle-19" stroke="#E9E9E9" fill="#F3F2F2" x="0.5" y="0.5" width="15" height="239" rx="3"></rect>
                <g id="Rectangle-18-+-Triangle-1">
                    <rect id="Rectangle-18" stroke="#CFCFCF" fill="url(#linearGradient-1)" x="0.5" y="0.5" width="15" height="19" rx="3"></rect>
                    <polygon id="Triangle-1" fill="#92979F" points="8 7 11.2 13 4.8 13"></polygon>
                </g>
                <g id="Rectangle-18-+-Triangle-2" transform="translate(8.000000, 230.000000) scale(1, -1) translate(-8.000000, -230.000000) translate(0.000000, 220.000000)">
                    <rect id="Rectangle-18" stroke="#CFCFCF" fill="url(#linearGradient-1)" x="0.5" y="0.5" width="15" height="19" rx="3"></rect>
                    <polygon id="Triangle-1" fill="#92979F" points="8 7 11.2 13 4.8 13"></polygon>
                </g>
                <g id="Rectangle-18-+-Triangle-3-+-Group" transform="translate(0.000000, 50.000000)">
                    <g id="Rectangle-18-+-Triangle-3" transform="translate(8.000000, 25.500000) scale(1, -1) translate(-8.000000, -25.500000) " fill="url(#linearGradient-2)" stroke="#CFCFCF">
                        <rect id="Rectangle-18" x="0.5" y="0.5" width="15" height="50" rx="3"></rect>
                    </g>
                    <g id="Group" transform="translate(4.000000, 20.000000)" fill="#D8D8D8" stroke="#979797">
                        <rect id="Rectangle-22" x="0.5" y="0.5" width="7" height="1"></rect>
                        <rect id="Rectangle-23" x="0.5" y="3.5" width="7" height="1"></rect>
                        <rect id="Rectangle-24" x="0.5" y="6.5" width="7" height="1"></rect>
                        <rect id="Rectangle-25" x="0.5" y="9.5" width="7" height="1"></rect>
                    </g>
                </g>
            </g>
        </g>
    </g>
</svg>
